build/img/icon-cart.svg

<svg viewBox="0 0 20 18" xmlns="http://www.w3.org/2000/svg">
<path fill-rule="evenodd" clip-rule="evenodd" d="M0 1C0 0.447715 0.447715 0 1 0H19C19.5523 0 20 0.447715 20 1V17C20 17.5523 19.5523 18 19 18H1C0.447715 18 0 17.5523 0 17V1ZM2 2V16H18V2H2ZM6 4C6.55228 4 7 4.44772 7 5C7 5.79565 7.31607 6.55871 7.87868 7.12132C8.44129 7.68393 9.20435 8 10 8C10.7956 8 11.5587 7.68393 12.1213 7.12132C12.6839 6.55871 13 5.79565 13 5C13 4.44772 13.4477 4 14 4C14.5523 4 15 4.44772 15 5C15 6.32608 14.4732 7.59785 13.5355 8.53553C12.5979 9.47322 11.3261 10 10 10C8.67392 10 7.40215 9.47322 6.46447 8.53553C5.52678 7.59785 5 6.32608 5 5C5 4.44772 5.44772 4 6 4Z"/>
</svg>

<svg viewBox="0 0 20 18" xmlns="http://www.w3.org/2000/svg"><path fill-rule="evenodd" clip-rule="evenodd" d="M0 1a1 1 0 011-1h18a1 1 0 011 1v16a1 1 0 01-1 1H1a1 1 0 01-1-1V1zm2 1v14h16V2H2zm4 2a1 1 0 011 1 3 3 0 106 0 1 1 0 112 0A5 5 0 015 5a1 1 0 011-1z"/></svg>
